X:20
T:Dillon Brown's Fancy
M:C|
L:1/8
Q:120
R:Reel (Key of A)
K:Amaj
cB |: "A"AFEF ~A3e | fece faaf | ec~c2 ac~c2 | fcec "E"BdcB |
"A"AFEF ~A3e | fece ~f2af | ec~c2 acec |1 "E"BAGB "A"AdcB :|2 "E"BAGB "A"A2ed |:
"A"ceAe ceAc | "E"BE~E2 BcdB | "A"cAAG Acec | "E"BE~E2 BcdB |
"A"AccB cedc | "E"~B3A BcdB | "A"ABce "D"fgaf | "A"eccB "E"cd:|]
